X: 1753
T: Sevdim Seni Diye
C: Adnan Aydemir
O: Turkey
F: http://compmusic.upf.edu/node/140
N: rast--sarki--duyek--sevdim_seni--adnan_aydemir
N: makam= rast
N: form= sarki
N: usul= duyek = 8/4
M: 8/4
L: 1/16
K: C _1/4B ^f  
Q: 1/4=120
%%MIDI tuningsystem comma53
G2 d4 c2 de dc dc B2  | G2 c4 B2 c3/2d/ cB cB A2  | \
w:  ARANAĞME  |   | 
G2 B4 A2 A3c BA G2  | 
w:   | 
z2 e2 d2 c2 (3BAB (3cBA G4  | G2 d4 c2 de dc dc B2  | 
w:   |  ARANAĞME  | 
G2 c4 B2 c3/2d/ cB cB A2  | G2 B4 A2 A3c BA G2  | \
w:   |   | 
z2 A4 G2 Ac BA GF G2  | 
w:   | 
G4 c4 cB A4 Bc  | BA G14  | z2 c4 d2 d4 c2 cB  | \
w:  Sev dim  se *  ni   |  di *  ye   |  çek ti ğim  *  ne  | 
B8 BA Bc A4  | 
w:  dir   | 
z2 A4 c2 B3A AB AG  | G6 AB c3/2B/ AB G4  | \
w:  çek ti ğim  *  *  *  ne  |  dir   SAZ  | 
G4 c4 cB A4 Bc  | 
w:  Sev dim  se *  ni   | 
BA G14  | z2 c4 d2 d4 c2 cB  | B8 BA Bc A4  | \
w:  di *  ye   |  çek ti ğim  *  ne  |  dir   | 
z2 A4 c2 B3A AB AG  | 
w:  çek ti ğim  *  *  *  ne  | 
G6 AB c3/2B/ AB d4  | z2 c4 d2 e2 de dc B2  | \
w:  dir   SAZ  |  Ver di ğin  *  *  ıs  | 
cB A6 .B2 .c2 .d4  | 
w:  tı *  rap  SAZ  | 
z2 c4 d2 d3c cB (3dcB  | B6 Bc d3/2c/ Bc B4  | \
w:  gam  ve  ke *  der  |  dir   SAZ  | 
z2 c4 d2 e2 de dc B2  | 
w:  Ver di ğin  *  *  ıs  | 
cB A6 (3BAB (3cBc d4  | z2 A4 c2 B3A AB AG  | \
w:  tı *  rap   |  gam  ve  ke *  der  | 
G8 g3/2f/ ef g4  | 
w:  dir   SAZ  | 
d2 gf e2 f2 g8  | z2 a4 gf ag fe d4  | \
w:  U zak *  *  *  ta   |  öz le *  mim *  *  *  sin   | 
d2 ed e2 f2 g4 b2 (3aga  | 
w:  ya kın *  *  *  da  *  a  | 
g6 ga b8  | (3c'ba g6 g3/2f/ ef g4  | \
w:  teş   SAZ  |   | 
d2 gf e2 f2 g4 a4  | z2 a4 f2 g2 =fe d4  | 
w:  U zak *  *  *  ta   |  öz le mim *  *  sin   | 
c2 d4 e2 gf e4 ed  | d6 dc B3/2A/ Bc d4  | \
w:  ya kın *  *  *  da  a  |  teş   SAZ  | 
z4 c2 d2 e2 de dc BA  | 
w:  Ne den_ aş *  *  kın   | 
c2 A6 B2 c2 d4  | c4 d4 z2 c2 cB dc  | \
w:  a zap   |  üz men  ne den  | 
B6 Bc d3/2c/ Bc B4  | 
w:  dir   SAZ  | 
z4 c2 d2 e2 de dc BA  | cB A6 (3BAB (3cBc d4  | \
w:  Ne den_ aş *  *  kın   |  a *  zap   | 
AB A2 c4 B2 A2 AB AG  | 
w:  üz *  *  men  *  ne den  | 
G6 AB c3/2B/ AB G4  | |


